X: 11232
P: The Daffodil.
M: 2/4
L: 1/8
K: C
|:\
cBcd | ceG2 | AAdc | .B2.g2 |\
cBcd | ceG2 | AdBG | c2c2 :|\
|:"^p second time f."\
ez ez | efg2 | cz cz | cde2 |\


